X:765
T:Paddy O'Rafferty
R:Jig
O:Ireland
B:O'Neill's 954
B:Kerr's Second p29
S:My arrangement from various sources
Z:Transcription, arrangement, chords:Mike Long
M:6/8
L:1/8
K:G
"G"GAB DED|"C"DcB AGE|"G"GAB DED|"C"GAG "D"GED|\
"G"GAB DED|"C"DcB cde|"G"dcB AGE|"C"GAG "(D)"GED:|
|:"G"DBB DAA|"C"DBB AGE|"G"DBB DAA|"C"GAG "D"GED|\
"G"DBB DAA|"C"DcB cde|"G"dcB AGE|"C"GAG "(D)"GED:|
|:"G"dBd "C"ece|"G"dBg dBG|"G"dBd "C"efg|"G"GAG GED|\
"G"dBd "C"ece|"D"fdf "C"gfe|"G"dcB AGE|"C"GAG "(D)"GED:|
|:"G"BDD ADD|"C"BGB AGE|"G"BDD ADD|"C"GAG "D"GED|\
"G"BDD ADD|"C"DcB cde|"G"dcB AGE|"C"GAG "(D)"GED:|
|:"G"B2G A2G|"C"B2G AGE|"G"B2G AGE|"C"GAG "D"GED|\
"G"BGG AGG|"C"BGG ABc|"G"dcB AGE|"C"GAG "(D)"GED:|
